Gawaita/scalable/devices/scanner.svg

<?xml version="1.0" encoding="UTF-8"?>
<svg height="128px" viewBox="0 0 128 128" width="128px" xmlns="http://www.w3.org/2000/svg" xmlns:xlink="http://www.w3.org/1999/xlink">
    <linearGradient id="a" gradientTransform="matrix(0 -1 -1 0 476.000107 -172.000011)" gradientUnits="userSpaceOnUse" x1="-294" x2="-294" y1="456.000092" y2="368.000183">
        <stop offset="0" stop-color="#9a9996"/>
        <stop offset="0.0775491" stop-color="#deddda"/>
        <stop offset="0.179317" stop-color="#9a9996"/>
        <stop offset="0.844019" stop-color="#9a9996"/>
        <stop offset="0.920315" stop-color="#deddda"/>
        <stop offset="0.982667" stop-color="#a8a7a4"/>
        <stop offset="1" stop-color="#f6f5f4"/>
    </linearGradient>
    <clipPath id="b">
        <path d="m 26 14 h 76 v 94 h -76 z m 0 0"/>
    </clipPath>
    <clipPath id="c">
        <path d="m 35.300781 14 h 57.398438 c 5.136719 0 9.300781 4.164062 9.300781 9.300781 v 75.398438 c 0 5.136719 -4.164062 9.300781 -9.300781 9.300781 h -57.398438 c -5.136719 0 -9.300781 -4.164062 -9.300781 -9.300781 v -75.398438 c 0 -5.136719 4.164062 -9.300781 9.300781 -9.300781 z m 0 0"/>
    </clipPath>
    <linearGradient id="d" gradientTransform="matrix(0 0.25 -0.296874 0 -11.999836 53.000004)" gradientUnits="userSpaceOnUse" x1="-156" x2="220" y1="-256" y2="-256">
        <stop offset="0"/>
        <stop offset="1" stop-color="#424048"/>
    </linearGradient>
    <filter id="e" height="100%" width="100%" x="0%" y="0%">
        <feColorMatrix in="SourceGraphic" type="matrix" values="0 0 0 0 1 0 0 0 0 1 0 0 0 0 1 0 0 0 1 0"/>
    </filter>
    <mask id="f">
        <g filter="url(#e)">
            <rect fill-opacity="0.486" height="128" width="128"/>
        </g>
    </mask>
    <radialGradient id="g" cx="-72.631592" cy="88.04454" gradientTransform="matrix(0 0.0838649 -2.374994 0 281.105272 74.091252)" gradientUnits="userSpaceOnUse" r="200">
        <stop offset="0" stop-color="#d5d3cf"/>
        <stop offset="1" stop-color="#d5d3cf" stop-opacity="0"/>
    </radialGradient>
    <clipPath id="h">
        <rect height="152" width="192"/>
    </clipPath>
    <clipPath id="i">
        <path d="m 26 14 h 76 v 66 h -76 z m 0 0"/>
    </clipPath>
    <clipPath id="j">
        <path d="m 35.300781 14 h 57.398438 c 5.136719 0 9.300781 4.164062 9.300781 9.300781 v 75.398438 c 0 5.136719 -4.164062 9.300781 -9.300781 9.300781 h -57.398438 c -5.136719 0 -9.300781 -4.164062 -9.300781 -9.300781 v -75.398438 c 0 -5.136719 4.164062 -9.300781 9.300781 -9.300781 z m 0 0"/>
    </clipPath>
    <clipPath id="k">
        <path d="m 102 -50.667969 v 128 c 0 1.472657 -1.0625 2.667969 -2.375 2.667969 h -71.25 c -1.3125 0 -2.375 -1.195312 -2.375 -2.667969 v -128 c 0 -1.472656 1.0625 -2.664062 2.375 -2.664062 h 71.25 c 1.3125 0 2.375 1.191406 2.375 2.664062 z m 0 0"/>
    </clipPath>
    <clipPath id="l">
        <path d="m 26 48 h 76 v 6 h -76 z m 0 0"/>
    </clipPath>
    <clipPath id="m">
        <path d="m 35.300781 14 h 57.398438 c 5.136719 0 9.300781 4.164062 9.300781 9.300781 v 75.398438 c 0 5.136719 -4.164062 9.300781 -9.300781 9.300781 h -57.398438 c -5.136719 0 -9.300781 -4.164062 -9.300781 -9.300781 v -75.398438 c 0 -5.136719 4.164062 -9.300781 9.300781 -9.300781 z m 0 0"/>
    </clipPath>
    <clipPath id="n">
        <path d="m 102 -50.667969 v 128 c 0 1.472657 -1.0625 2.667969 -2.375 2.667969 h -71.25 c -1.3125 0 -2.375 -1.195312 -2.375 -2.667969 v -128 c 0 -1.472656 1.0625 -2.664062 2.375 -2.664062 h 71.25 c 1.3125 0 2.375 1.191406 2.375 2.664062 z m 0 0"/>
    </clipPath>
    <clipPath id="o">
        <path d="m 32 19 h 64 v 83 h -64 z m 0 0"/>
    </clipPath>
    <clipPath id="p">
        <path d="m 35.300781 14 h 57.398438 c 5.136719 0 9.300781 4.164062 9.300781 9.300781 v 75.398438 c 0 5.136719 -4.164062 9.300781 -9.300781 9.300781 h -57.398438 c -5.136719 0 -9.300781 -4.164062 -9.300781 -9.300781 v -75.398438 c 0 -5.136719 4.164062 -9.300781 9.300781 -9.300781 z m 0 0"/>
    </clipPath>
    <clipPath id="q">
        <path d="m 74 20 h 22 v 22 h -22 z m 0 0"/>
    </clipPath>
    <clipPath id="r">
        <path d="m 35.300781 14 h 57.398438 c 5.136719 0 9.300781 4.164062 9.300781 9.300781 v 75.398438 c 0 5.136719 -4.164062 9.300781 -9.300781 9.300781 h -57.398438 c -5.136719 0 -9.300781 -4.164062 -9.300781 -9.300781 v -75.398438 c 0 -5.136719 4.164062 -9.300781 9.300781 -9.300781 z m 0 0"/>
    </clipPath>
    <path d="m 108 110.109375 v -82.21875 c 0 -7.671875 -6.21875 -13.890625 -13.890625 -13.890625 h -60.21875 c -7.671875 0 -13.890625 6.21875 -13.890625 13.890625 v 82.21875 c 0 7.671875 6.21875 13.890625 13.890625 13.890625 h 60.21875 c 7.671875 0 13.890625 -6.21875 13.890625 -13.890625 z m 0 0" fill="url(#a)"/>
    <path d="m 108 104.109375 v -82.21875 c 0 -7.671875 -6.21875 -13.890625 -13.890625 -13.890625 h -60.21875 c -7.671875 0 -13.890625 6.21875 -13.890625 13.890625 v 82.21875 c 0 7.671875 6.21875 13.890625 13.890625 13.890625 h 60.21875 c 7.671875 0 13.890625 -6.21875 13.890625 -13.890625 z m 0 0" fill="#c0bfbc"/>
    <g clip-path="url(#b)">
        <g clip-path="url(#c)">
            <path d="m 102 14 v 94 h -76 v -94 z m 0 0" fill="url(#d)"/>
            <g clip-path="url(#h)" mask="url(#f)" transform="matrix(1 0 0 1 -8 -16)">
                <path d="m 110 30 v 94 h -76 v -94 z m 0 0" fill="url(#g)"/>
            </g>
        </g>
    </g>
    <g clip-path="url(#i)">
        <g clip-path="url(#j)">
            <g clip-path="url(#k)">
                <image height="152" transform="matrix(1 0 0 1 -8 -16)" width="192" xlink:href="data:image/png;base64,iVBORw0KGgoAAAANSUhEUgAAAMAAAACYCAYAAACyAeadAAAABmJLR0QA/wD/AP+gvaeTAAABM0lEQVR4nO3ZMUoDQRTH4TfZRQISsNAueinPoWDpKQS9odppFwQx6z4LD2CazLDO913g/xj4NbsRAAAAAAAAAAAAAAAAAAAAAAAAAAAAAAAAAAAAAAAAAAAAAAAAAAAAAAAAAADwP5VaQ5lR4vVuXWuva9uHz1IiW5+xBNUC2O1uLk6+58daez37Gla3m83TW+s7lmCsNjTtT6MM11Exuk7lOO3vI0IAB6gWQJSpRAxjCODY8vetOcSq9QHQkgDomgDomgDomgDomgDomgDoWr3/AJlzlLKLSN+oj6pkZM6tr1iKagGszy5f4v15W2uva+dXH61PAAAAAAAAAAAAAAAAAAAAAAAAAAAAAAAAAAAAAAAAAAAAAAAAAAAAAAAAAAAAAAAAAAAAAAAAAAAAAAD4ww97FyT25kIt/gAAAABJRU5ErkJggg=="/>
            </g>
        </g>
    </g>
    <g clip-path="url(#l)">
        <g clip-path="url(#m)">
            <g clip-path="url(#n)">
                <path d="m 109.125 48 h -90.25 v 5.980469 h 90.25 z m 0 0" fill="#ffffff"/>
            </g>
        </g>
    </g>
    <g clip-path="url(#o)">
        <g clip-path="url(#p)">
            <path d="m 37.816406 19.984375 l 36.183594 0.015625 l 22 22 v 54.179688 c 0 3.214843 -2.625 5.820312 -5.847656 5.820312 h -52.335938 c -3.222656 0 -5.816406 -2.589844 -5.816406 -5.804688 v -70.40625 c 0 -3.214843 2.59375 -5.804687 5.816406 -5.804687 z m 0 0" fill="#f6f5f4"/>
        </g>
    </g>
    <g clip-path="url(#q)">
        <g clip-path="url(#r)">
            <path d="m 74.035156 20 v 16.226562 c 0 3.222657 2.625 5.761719 5.847656 5.761719 l 16.117188 0.011719 z m 0 0" fill="#deddda"/>
        </g>
    </g>
    <g fill="#deddda">
        <path d="m 42 32 h 20 c 1.105469 0 2 0.894531 2 2 s -0.894531 2 -2 2 h -20 c -1.105469 0 -2 -0.894531 -2 -2 s 0.894531 -2 2 -2 z m 0 0"/>
        <path d="m 42 40 h 20 c 1.105469 0 2 0.894531 2 2 s -0.894531 2 -2 2 h -20 c -1.105469 0 -2 -0.894531 -2 -2 s 0.894531 -2 2 -2 z m 0 0"/>
        <path d="m 42 56 h 44 c 1.105469 0 2 0.894531 2 2 s -0.894531 2 -2 2 h -44 c -1.105469 0 -2 -0.894531 -2 -2 s 0.894531 -2 2 -2 z m 0 0"/>
        <path d="m 42 64 h 44 c 1.105469 0 2 0.894531 2 2 s -0.894531 2 -2 2 h -44 c -1.105469 0 -2 -0.894531 -2 -2 s 0.894531 -2 2 -2 z m 0 0"/>
        <path d="m 42 72 h 44 c 1.105469 0 2 0.894531 2 2 s -0.894531 2 -2 2 h -44 c -1.105469 0 -2 -0.894531 -2 -2 s 0.894531 -2 2 -2 z m 0 0"/>
        <path d="m 42 80 h 44 c 1.105469 0 2 0.894531 2 2 s -0.894531 2 -2 2 h -44 c -1.105469 0 -2 -0.894531 -2 -2 s 0.894531 -2 2 -2 z m 0 0"/>
        <path d="m 42 88 h 44 c 1.105469 0 2 0.894531 2 2 s -0.894531 2 -2 2 h -44 c -1.105469 0 -2 -0.894531 -2 -2 s 0.894531 -2 2 -2 z m 0 0"/>
    </g>
    <path d="m 32 44.066406 h 64 v 11.933594 h -64 z m 0 0" fill="#f8ef6b" fill-opacity="0.396078"/>
    <path d="m 42 48 h 44 c 1.105469 0 2 0.894531 2 2 s -0.894531 2 -2 2 h -44 c -1.105469 0 -2 -0.894531 -2 -2 s 0.894531 -2 2 -2 z m 0 0" fill="#ffffff"/>
</svg>

<svg width="128" height="128" viewBox="0 0 128 128" fill="none" xmlns="http://www.w3.org/2000/svg" xmlns:xlink="http://www.w3.org/1999/xlink">
<g clip-path="url(#clip0_1_3747)">
<path d="M108 110.109V27.8906C108 20.2188 101.781 14 94.1094 14H33.8906C26.2188 14 20 20.2188 20 27.8906V110.109C20 117.781 26.2188 124 33.8906 124H94.1094C101.781 124 108 117.781 108 110.109Z" fill="url(#paint0_linear_1_3747)"/>
<path d="M108 104.109V21.8906C108 14.2188 101.781 8 94.1094 8H33.8906C26.2188 8 20 14.2188 20 21.8906V104.109C20 111.781 26.2188 118 33.8906 118H94.1094C101.781 118 108 111.781 108 104.109Z" fill="#C0BFBC"/>
<mask id="mask0_1_3747" style="mask-type:luminance" maskUnits="userSpaceOnUse" x="26" y="14" width="76" height="94">
<path d="M26 14H102V108H26V14Z" fill="white"/>
</mask>
<g mask="url(#mask0_1_3747)">
<mask id="mask1_1_3747" style="mask-type:luminance" maskUnits="userSpaceOnUse" x="26" y="14" width="76" height="94">
<path d="M35.3008 14H92.6992C97.8359 14 102 18.1641 102 23.3008V98.6992C102 103.836 97.8359 108 92.6992 108H35.3008C30.1641 108 26 103.836 26 98.6992V23.3008C26 18.1641 30.1641 14 35.3008 14Z" fill="white"/>
</mask>
<g mask="url(#mask1_1_3747)">
<path d="M102 14V108H26V14H102Z" fill="url(#paint1_linear_1_3747)"/>
<mask id="mask2_1_3747" style="mask-type:luminance" maskUnits="userSpaceOnUse" x="0" y="0" width="128" height="128">
<path d="M128 0H0V128H128V0Z" fill="black" fill-opacity="0.486"/>
</mask>
<g mask="url(#mask2_1_3747)">
<mask id="mask3_1_3747" style="mask-type:luminance" maskUnits="userSpaceOnUse" x="-8" y="-16" width="192" height="152">
<path d="M184 -16H-8V136H184V-16Z" fill="white"/>
</mask>
<g mask="url(#mask3_1_3747)">
<path d="M102 14V108H26V14H102Z" fill="url(#paint2_radial_1_3747)"/>
</g>
</g>
</g>
</g>
<mask id="mask4_1_3747" style="mask-type:luminance" maskUnits="userSpaceOnUse" x="26" y="14" width="76" height="66">
<path d="M26 14H102V80H26V14Z" fill="white"/>
</mask>
<g mask="url(#mask4_1_3747)">
<mask id="mask5_1_3747" style="mask-type:luminance" maskUnits="userSpaceOnUse" x="26" y="14" width="76" height="94">
<path d="M35.3008 14H92.6992C97.8359 14 102 18.1641 102 23.3008V98.6992C102 103.836 97.8359 108 92.6992 108H35.3008C30.1641 108 26 103.836 26 98.6992V23.3008C26 18.1641 30.1641 14 35.3008 14Z" fill="white"/>
</mask>
<g mask="url(#mask5_1_3747)">
<mask id="mask6_1_3747" style="mask-type:luminance" maskUnits="userSpaceOnUse" x="26" y="-54" width="76" height="134">
<path d="M102 -50.668V77.332C102 78.8047 100.938 80 99.625 80H28.375C27.0625 80 26 78.8047 26 77.332V-50.668C26 -52.1406 27.0625 -53.332 28.375 -53.332H99.625C100.938 -53.332 102 -52.1406 102 -50.668Z" fill="white"/>
</mask>
<g mask="url(#mask6_1_3747)">
<rect x="-8" y="-16" width="192" height="152" fill="url(#pattern0_1_3747)"/>
</g>
</g>
</g>
<g filter="url(#filter0_d_1_3747)">
<mask id="mask7_1_3747" style="mask-type:luminance" maskUnits="userSpaceOnUse" x="26" y="48" width="76" height="6">
<path d="M26 48H102V54H26V48Z" fill="white"/>
</mask>
<g mask="url(#mask7_1_3747)">
<mask id="mask8_1_3747" style="mask-type:luminance" maskUnits="userSpaceOnUse" x="26" y="14" width="76" height="94">
<path d="M35.3008 14H92.6992C97.8359 14 102 18.1641 102 23.3008V98.6992C102 103.836 97.8359 108 92.6992 108H35.3008C30.1641 108 26 103.836 26 98.6992V23.3008C26 18.1641 30.1641 14 35.3008 14Z" fill="white"/>
</mask>
<g mask="url(#mask8_1_3747)">
<mask id="mask9_1_3747" style="mask-type:luminance" maskUnits="userSpaceOnUse" x="26" y="-54" width="76" height="134">
<path d="M102 -50.668V77.332C102 78.8047 100.938 80 99.625 80H28.375C27.0625 80 26 78.8047 26 77.332V-50.668C26 -52.1406 27.0625 -53.332 28.375 -53.332H99.625C100.938 -53.332 102 -52.1406 102 -50.668Z" fill="white"/>
</mask>
<g mask="url(#mask9_1_3747)">
<path d="M109.125 48H18.875V53.9805H109.125V48Z" fill="white"/>
</g>
</g>
</g>
</g>
<mask id="mask10_1_3747" style="mask-type:luminance" maskUnits="userSpaceOnUse" x="32" y="19" width="64" height="83">
<path d="M32 19H96V102H32V19Z" fill="white"/>
</mask>
<g mask="url(#mask10_1_3747)">
<mask id="mask11_1_3747" style="mask-type:luminance" maskUnits="userSpaceOnUse" x="26" y="14" width="76" height="94">
<path d="M35.3008 14H92.6992C97.8359 14 102 18.1641 102 23.3008V98.6992C102 103.836 97.8359 108 92.6992 108H35.3008C30.1641 108 26 103.836 26 98.6992V23.3008C26 18.1641 30.1641 14 35.3008 14Z" fill="white"/>
</mask>
<g mask="url(#mask11_1_3747)">
<path d="M37.8164 19.9844L74 20L96 42V96.1797C96 99.3945 93.375 102 90.1523 102H37.8164C34.5938 102 32 99.4102 32 96.1953V25.7891C32 22.5742 34.5938 19.9844 37.8164 19.9844Z" fill="#F6F5F4"/>
</g>
</g>
<mask id="mask12_1_3747" style="mask-type:luminance" maskUnits="userSpaceOnUse" x="74" y="20" width="22" height="22">
<path d="M74 20H96V42H74V20Z" fill="white"/>
</mask>
<g mask="url(#mask12_1_3747)">
<mask id="mask13_1_3747" style="mask-type:luminance" maskUnits="userSpaceOnUse" x="26" y="14" width="76" height="94">
<path d="M35.3008 14H92.6992C97.8359 14 102 18.1641 102 23.3008V98.6992C102 103.836 97.8359 108 92.6992 108H35.3008C30.1641 108 26 103.836 26 98.6992V23.3008C26 18.1641 30.1641 14 35.3008 14Z" fill="white"/>
</mask>
<g mask="url(#mask13_1_3747)">
<path d="M74.0352 20V36.2266C74.0352 39.4492 76.6602 41.9883 79.8828 41.9883L96 42L74.0352 20Z" fill="#DEDDDA"/>
</g>
</g>
<path d="M42 32H62C63.1055 32 64 32.8945 64 34C64 35.1055 63.1055 36 62 36H42C40.8945 36 40 35.1055 40 34C40 32.8945 40.8945 32 42 32Z" fill="#DEDDDA"/>
<path d="M42 40H62C63.1055 40 64 40.8945 64 42C64 43.1055 63.1055 44 62 44H42C40.8945 44 40 43.1055 40 42C40 40.8945 40.8945 40 42 40Z" fill="#DEDDDA"/>
<path d="M42 56H86C87.1055 56 88 56.8945 88 58C88 59.1055 87.1055 60 86 60H42C40.8945 60 40 59.1055 40 58C40 56.8945 40.8945 56 42 56Z" fill="#DEDDDA"/>
<path d="M42 64H86C87.1055 64 88 64.8945 88 66C88 67.1055 87.1055 68 86 68H42C40.8945 68 40 67.1055 40 66C40 64.8945 40.8945 64 42 64Z" fill="#DEDDDA"/>
<path d="M42 72H86C87.1055 72 88 72.8945 88 74C88 75.1055 87.1055 76 86 76H42C40.8945 76 40 75.1055 40 74C40 72.8945 40.8945 72 42 72Z" fill="#DEDDDA"/>
<path d="M42 80H86C87.1055 80 88 80.8945 88 82C88 83.1055 87.1055 84 86 84H42C40.8945 84 40 83.1055 40 82C40 80.8945 40.8945 80 42 80Z" fill="#DEDDDA"/>
<path d="M42 88H86C87.1055 88 88 88.8945 88 90C88 91.1055 87.1055 92 86 92H42C40.8945 92 40 91.1055 40 90C40 88.8945 40.8945 88 42 88Z" fill="#DEDDDA"/>
<g filter="url(#filter1_d_1_3747)">
<path d="M32 44.0664H96V56H32V44.0664Z" fill="#F8EF6B" fill-opacity="0.396078" shape-rendering="crispEdges"/>
</g>
<path d="M42 48H86C87.1055 48 88 48.8945 88 50C88 51.1055 87.1055 52 86 52H42C40.8945 52 40 51.1055 40 50C40 48.8945 40.8945 48 42 48Z" fill="white"/>
</g>
<defs>
<pattern id="pattern0_1_3747" patternContentUnits="objectBoundingBox" width="1" height="1">
<use xlink:href="#image0_1_3747" transform="scale(0.00520833 0.00657895)"/>
</pattern>
<filter id="filter0_d_1_3747" x="-4.7" y="17.3" width="137.4" height="67.3805" filterUnits="userSpaceOnUse" color-interpolation-filters="sRGB">
<feFlood flood-opacity="0" result="BackgroundImageFix"/>
<feColorMatrix in="SourceAlpha" type="matrix" values="0 0 0 0 0 0 0 0 0 0 0 0 0 0 0 0 0 0 127 0" result="hardAlpha"/>
<feOffset/>
<feGaussianBlur stdDeviation="15.35"/>
<feComposite in2="hardAlpha" operator="out"/>
<feColorMatrix type="matrix" values="0 0 0 0 0.937255 0 0 0 0 0.905882 0 0 0 0 0.415686 0 0 0 1 0"/>
<feBlend mode="normal" in2="BackgroundImageFix" result="effect1_dropShadow_1_3747"/>
<feBlend mode="normal" in="SourceGraphic" in2="effect1_dropShadow_1_3747" result="shape"/>
</filter>
<filter id="filter1_d_1_3747" x="15.4" y="27.4664" width="97.2" height="45.1336" filterUnits="userSpaceOnUse" color-interpolation-filters="sRGB">
<feFlood flood-opacity="0" result="BackgroundImageFix"/>
<feColorMatrix in="SourceAlpha" type="matrix" values="0 0 0 0 0 0 0 0 0 0 0 0 0 0 0 0 0 0 127 0" result="hardAlpha"/>
<feOffset/>
<feGaussianBlur stdDeviation="8.3"/>
<feComposite in2="hardAlpha" operator="out"/>
<feColorMatrix type="matrix" values="0 0 0 0 1 0 0 0 0 0.934783 0 0 0 0 0 0 0 0 1 0"/>
<feBlend mode="normal" in2="BackgroundImageFix" result="effect1_dropShadow_1_3747"/>
<feBlend mode="normal" in="SourceGraphic" in2="effect1_dropShadow_1_3747" result="shape"/>
</filter>
<linearGradient id="paint0_linear_1_3747" x1="20" y1="122" x2="108" y2="122" gradientUnits="userSpaceOnUse">
<stop stop-color="#9A9996"/>
<stop offset="0.0775491" stop-color="#DEDDDA"/>
<stop offset="0.179317" stop-color="#9A9996"/>
<stop offset="0.844019" stop-color="#9A9996"/>
<stop offset="0.920315" stop-color="#DEDDDA"/>
<stop offset="0.982667" stop-color="#A8A7A4"/>
<stop offset="1" stop-color="#F6F5F4"/>
</linearGradient>
<linearGradient id="paint1_linear_1_3747" x1="63.9999" y1="14" x2="63.9999" y2="108" gradientUnits="userSpaceOnUse">
<stop/>
<stop offset="1" stop-color="#424048"/>
</linearGradient>
<radialGradient id="paint2_radial_1_3747" cx="0" cy="0" r="1" gradientUnits="userSpaceOnUse" gradientTransform="translate(64 52) rotate(90) scale(16.773 474.999)">
<stop stop-color="#D5D3CF"/>
<stop offset="1" stop-color="#D5D3CF" stop-opacity="0"/>
</radialGradient>
<clipPath id="clip0_1_3747">
<rect width="128" height="128" fill="white"/>
</clipPath>
<image id="image0_1_3747" width="192" height="152" preserveAspectRatio="none" xlink:href="data:image/png;base64,iVBORw0KGgoAAAANSUhEUgAAAMAAAACYCAYAAACyAeadAAAABmJLR0QA/wD/AP+gvaeTAAABM0lEQVR4nO3ZMUoDQRTH4TfZRQISsNAueinPoWDpKQS9odppFwQx6z4LD2CazLDO913g/xj4NbsRAAAAAAAAAAAAAAAAAAAAAAAAAAAAAAAAAAAAAAAAAAAAAAAAAAAAAAAAAADwP5VaQ5lR4vVuXWuva9uHz1IiW5+xBNUC2O1uLk6+58daez37Gla3m83TW+s7lmCsNjTtT6MM11Exuk7lOO3vI0IAB6gWQJSpRAxjCODY8vetOcSq9QHQkgDomgDomgDomgDomgDomgDoWr3/AJlzlLKLSN+oj6pkZM6tr1iKagGszy5f4v15W2uva+dXH61PAAAAAAAAAAAAAAAAAAAAAAAAAAAAAAAAAAAAAAAAAAAAAAAAAAAAAAAAAAAAAAAAAAAAAAAAAAAAAAD4ww97FyT25kIt/gAAAABJRU5ErkJggg=="/>
</defs>
</svg>
